X:1
T:When Jesus Wept Canon of Four In One Words: Perez Morton - 88. 88. (L. M.) • Music: William Billings, 1770 (F# minor) No copyright.  Transcribed from The New-England Psalm-Singer, 1770.
%%score [ 1 2 3 4 ]
L:1/8
M:3/2
K:A
V:1 treble nm="1" snm="Tr."
V:2 treble nm="2" snm="C."
V:3 treble nm="3" snm="T."
V:4 treble nm="4" snm="B."
V:1
 F4 | c8 B4 | (c3 d e4) A4 | (c3 B A4) G4 | A8 |] %5
w: When|Je- sus|wept, * * the|fal- * * ling|tear|
V:2
 F4 | F8 E4 | (A4 G4) F4 | F8 C4 | F8 |] %5
w: In|mer- cy|flowed * be-|yond all|bound,|
V:3
 c4 | (f4 c4) e4 | (A4 B4) c4 | c8 c4 | c8 |] %5
w: When|Je- * sus|groaned, * a|trem- bling|fear|
V:4
 A4 | (c3 B A4) G4 | (A4 d4) c4 | (A3 G F4) E4 | F8 |] %5
w: Seized|all * * the|guil- * ty|world * * a-|round.|

